static/assets/images/exchanges/swapx.svg

<svg width="327" height="256" viewBox="0 0 327 256" fill="none" xmlns="http://www.w3.org/2000/svg">
<path d="M294.297 154.948C279.326 135.926 263.962 116.508 248.991 97.4865C260.416 83.2199 271.448 69.3499 282.872 55.0836C293.118 42.0063 303.757 28.9288 314.396 15.8514L327 0L306.508 0.396286C303.757 0.396286 301.39 0.396286 299.818 0.396286C294.297 0.396286 289.179 0.396286 283.658 0.396286C278.54 0.396286 273.029 0.396286 267.901 0.396286C258.844 0.396286 251.358 0.396286 244.266 0C243.48 0 243.087 0 242.291 0C230.08 0 221.416 4.75543 214.323 14.6626C206.838 24.966 199.352 34.8731 190.688 45.1765C187.141 49.5357 183.595 53.8948 180.049 58.254L175.314 64.1982L180.049 70.1425C189.499 82.4273 198.959 94.3159 208.41 106.204L225.748 128.397C219.049 136.719 211.956 145.437 204.863 154.155L200.138 160.1L204.863 166.044C206.445 168.025 208.017 170.006 209.598 171.988C213.93 177.536 218.263 183.084 222.202 188.236C226.141 193.387 231.259 196.162 237.566 196.162H237.959C248.205 196.162 258.844 196.162 269.08 196.162H276.968H284.847C289.965 196.162 295.476 196.162 300.604 196.162H301.783H303.757C304.543 196.162 305.329 196.162 306.115 196.162L325.419 195.765L313.208 180.31L294.297 154.948ZM106.765 7.92571C102.433 2.37771 97.3144 0 90.6148 0C77.2194 0 63.8239 0 52.3991 0H39.7915H26.79C26.0021 0 25.2142 0 24.0324 0C22.8507 0 22.0629 0 20.4871 0H20.0932H0L12.6076 15.8514C27.9727 34.8731 42.9429 53.8948 57.9141 72.5202C72.4913 90.7493 87.0685 108.978 101.647 127.208C72.0973 164.855 42.5489 202.106 12.6076 240.148L0.393923 256H20.0932H34.6695H48.4588C60.6725 256 75.2487 256 89.4359 256H89.8289C98.1004 256 102.826 251.641 105.586 248.074L106.372 247.282C135.135 211.22 164.685 173.969 193.831 137.511C197.771 132.755 200.531 125.226 193.831 116.508C161.924 77.6719 133.554 42.0063 106.765 7.92571Z" fill="url(#paint0_linear_10905_710)"/>
<defs>
<linearGradient id="paint0_linear_10905_710" x1="-0.22428" y1="127.872" x2="326.99" y2="127.872" gradientUnits="userSpaceOnUse">
<stop stop-color="#E1FF66"/>
<stop offset="1" stop-color="#27FF93"/>
</linearGradient>
</defs>
</svg>

<svg xmlns="http://www.w3.org/2000/svg" fill="none" viewBox="0 0 327 256"><path fill="url(#paint0_linear_10905_710)" d="M294.297 154.948c-14.971-19.022-30.335-38.44-45.306-57.461 11.425-14.267 22.457-28.137 33.881-42.403 10.246-13.078 20.885-26.155 31.524-39.233L327 0l-20.492.396h-38.607c-9.057 0-16.543 0-23.635-.396h-1.975c-12.211 0-20.875 4.755-27.968 14.663-7.485 10.303-14.971 20.21-23.635 30.514l-10.639 13.077-4.735 5.944 4.735 5.945c9.45 12.284 18.91 24.173 28.361 36.061l17.338 22.193c-6.699 8.322-13.792 17.04-20.885 25.758l-4.725 5.945 4.725 5.944c1.582 1.981 3.154 3.962 4.735 5.944 4.332 5.548 8.665 11.096 12.604 16.248 3.939 5.151 9.057 7.926 15.364 7.926h68.549l19.304-.397-12.211-15.455zM106.765 7.926C102.433 2.378 97.315 0 90.615 0H0l12.608 15.851c15.365 19.022 30.335 38.044 45.306 56.67l43.733 54.687c-29.55 37.647-59.098 74.898-89.04 112.94L.395 256H89.83c8.271 0 12.997-4.359 15.757-7.926l.786-.792c28.763-36.062 58.313-73.313 87.459-109.771 3.94-4.756 6.7-12.285 0-21.003-31.907-38.836-60.277-74.502-87.066-108.582"/><defs><linearGradient id="paint0_linear_10905_710" x1="-.224" x2="326.99" y1="127.872" y2="127.872" gradientUnits="userSpaceOnUse"><stop stop-color="#E1FF66"/><stop offset="1" stop-color="#27FF93"/></linearGradient></defs></svg>
